images/non_custodial.svg

<svg width="30" height="30" viewBox="0 0 30 30" fill="none" xmlns="http://www.w3.org/2000/svg">
<g clip-path="url(#clip0)">
<path d="M11.5 12C14.5376 12 17 9.53757 17 6.5C17 3.46243 14.5376 1 11.5 1C8.46243 1 6 3.46243 6 6.5C6 9.53757 8.46243 12 11.5 12Z" fill="#8B8BB8"/>
<path d="M29 13V12.5C29 10.0147 26.9853 8 24.5 8C22.0147 8 20 10.0147 20 12.5V13H19H18V14V22V23H19H30H31V22V14V13H30H29ZM25 12.5V13H24V12.5C24 12.2239 24.2239 12 24.5 12C24.7761 12 25 12.2239 25 12.5Z" fill="#8B8BB8" stroke="white" stroke-width="2"/>
<path d="M17 15.554C15.4005 14.5685 13.5166 14 11.5 14C5.70101 14 1 18.701 1 24.5V28H22V24.5C22 24.3324 21.9961 24.1657 21.9883 24H17V15.554Z" fill="#8B8BB8"/>
</g>
<defs>
<clipPath id="clip0">
<rect width="30" height="30" fill="white"/>
</clipPath>
</defs>
</svg>

<svg width="30" height="30" fill="none" xmlns="http://www.w3.org/2000/svg"><g clip-path="url(#clip0)" fill="#8B8BB8"><path d="M11.5 12a5.5 5.5 0 100-11 5.5 5.5 0 000 11z"/><path d="M29 13v-.5a4.5 4.5 0 10-9 0v.5h-2v10h13V13h-2zm-4-.5v.5h-1v-.5a.5.5 0 011 0z" stroke="#fff" stroke-width="2"/><path d="M17 15.554A10.45 10.45 0 0011.5 14C5.701 14 1 18.701 1 24.5V28h21v-3.5c0-.168-.004-.334-.012-.5H17v-8.446z"/></g><defs><clipPath id="clip0"><path fill="#fff" d="M0 0h30v30H0z"/></clipPath></defs></svg>
